X: 1
T: Up In The Air
R: jig
M: 6/8
L: 1/8
K: Bmin
FBB BAB|c2c AFE|FBB BAB|cBA B2A|
FBB BAB|c2c ABc|def ecA|1 FBB B2A:|2 FBB B2c||
|:d2d ede|fBB BAB|d2d ede|
fBB Bdc|dcd ede|1 fdB def|gfe dBA|
FBB Bdc:|2 fgf ecA|fgf ecA|FBB B2A||

